assets/svg/currencies/commodity/SILVER.svg

<svg width="300" height="300" viewBox="0 0 300 300" fill="none" xmlns="http://www.w3.org/2000/svg">
<path d="M150 300C232.843 300 300 232.843 300 150C300 67.1573 232.843 0 150 0C67.1573 0 0 67.1573 0 150C0 232.843 67.1573 300 150 300Z" fill="#F4C14D"/>
<path d="M46.7788 158.91C46.9743 161.442 48.0008 163.487 49.8584 165.045C51.7648 166.554 54.2823 167.309 57.4109 167.309C60.0017 167.309 62.1036 166.773 63.7168 165.702C65.3788 164.582 66.2098 163.049 66.2098 161.101C66.2098 159.738 65.7455 158.667 64.8167 157.888C63.9368 157.06 62.6658 156.427 61.0038 155.989C59.3906 155.502 56.8731 154.918 53.4513 154.236C50.0784 153.603 47.2431 152.8 44.9456 151.826C42.6481 150.803 40.7661 149.318 39.2996 147.371C37.882 145.375 37.1732 142.745 37.1732 139.483C37.1732 136.513 37.9798 133.86 39.5929 131.522C41.2549 129.185 43.528 127.36 46.4121 126.045C49.3451 124.682 52.6447 124 56.311 124C60.075 124 63.4479 124.706 66.4298 126.118C69.4606 127.481 71.8314 129.38 73.5423 131.815C75.3021 134.249 76.2065 137 76.2553 140.067H65.4766C65.2322 137.876 64.3034 136.124 62.6902 134.809C61.0771 133.446 58.9507 132.764 56.311 132.764C53.8668 132.764 51.9115 133.275 50.445 134.298C48.9785 135.32 48.2453 136.781 48.2453 138.68C48.2453 140.043 48.6852 141.114 49.5651 141.893C50.445 142.624 51.6915 143.232 53.3047 143.719C54.9178 144.157 57.4109 144.693 60.7838 145.326C64.2056 145.959 67.0897 146.762 69.4361 147.736C71.7825 148.661 73.6645 150.097 75.0821 152.045C76.5486 153.944 77.2819 156.5 77.2819 159.713C77.2819 162.83 76.4264 165.629 74.7155 168.112C73.0046 170.547 70.6093 172.47 67.5297 173.882C64.4989 175.294 61.0771 176 57.2642 176C53.158 176 49.4918 175.27 46.2655 173.809C43.0881 172.3 40.595 170.23 38.7863 167.601C36.9777 164.972 36.0489 162.026 36 158.764L46.7788 158.91Z" fill="white"/>
<path d="M83.8811 124.438H94.8799V175.562H83.8811V124.438Z" fill="white"/>
<path d="M103.573 175.562L103.573 124.438H114.572L114.572 166.14L134.956 166.14V175.562L103.573 175.562Z" fill="white"/>
<path d="M127.673 124.438H139.331L151.65 162.27L164.262 124.438H175.627L158.249 175.562H145.124L127.673 124.438Z" fill="white"/>
<path d="M180.048 124.438H214.511V133.86H191.047V145.326H210.112V154.309H191.047V166.14H215.318V175.562H180.048V124.438Z" fill="white"/>
<path d="M242.836 124.438C246.551 124.438 249.826 125.144 252.661 126.556C255.545 127.919 257.77 129.891 259.334 132.472C260.898 135.052 261.68 138.047 261.68 141.455C261.68 144.717 260.898 147.614 259.334 150.146C257.77 152.629 255.619 154.528 252.881 155.843L263 175.562H250.828L242.249 158.399H232.937V175.562L221.938 175.562V124.438H242.836ZM232.937 149.27L241.956 149.27C244.547 149.27 246.6 148.564 248.115 147.152C249.679 145.74 250.461 143.841 250.461 141.455C250.461 139.021 249.679 137.097 248.115 135.685C246.6 134.273 244.547 133.567 241.956 133.567H232.937V149.27Z" fill="white"/>
</svg>

<svg viewBox="0 0 300 300" fill="none" xmlns="http://www.w3.org/2000/svg">
    <path d="M150 300c82.843 0 150-67.157 150-150S232.843 0 150 0 0 67.157 0 150s67.157 150 150 150z" fill="#F4C14D"/>
    <path d="M46.779 158.91c.195 2.532 1.222 4.577 3.08 6.135 1.906 1.509 4.423 2.264 7.552 2.264 2.59 0 4.693-.536 6.306-1.607 1.662-1.12 2.493-2.653 2.493-4.601 0-1.363-.464-2.434-1.393-3.213-.88-.828-2.151-1.461-3.813-1.899-1.613-.487-4.13-1.071-7.553-1.753-3.373-.633-6.208-1.436-8.505-2.41-2.298-1.023-4.18-2.508-5.646-4.455-1.418-1.996-2.127-4.626-2.127-7.888 0-2.97.807-5.623 2.42-7.961 1.662-2.337 3.935-4.162 6.82-5.477 2.932-1.363 6.232-2.045 9.898-2.045 3.764 0 7.137.706 10.119 2.118 3.03 1.363 5.401 3.262 7.112 5.697 1.76 2.434 2.665 5.185 2.713 8.252H65.477c-.245-2.191-1.174-3.943-2.787-5.258-1.613-1.363-3.74-2.045-6.379-2.045-2.444 0-4.4.511-5.866 1.534-1.467 1.022-2.2 2.483-2.2 4.382 0 1.363.44 2.434 1.32 3.213.88.731 2.127 1.339 3.74 1.826 1.613.438 4.106.974 7.479 1.607 3.422.633 6.306 1.436 8.652 2.41 2.346.925 4.228 2.361 5.646 4.309 1.467 1.899 2.2 4.455 2.2 7.668 0 3.117-.856 5.916-2.566 8.399-1.711 2.435-4.107 4.358-7.186 5.77-3.031 1.412-6.453 2.118-10.266 2.118-4.106 0-7.772-.73-10.998-2.191-3.178-1.509-5.671-3.579-7.48-6.208-1.808-2.629-2.737-5.575-2.786-8.837l10.779.146zm37.102-34.472H94.88v51.124h-11v-51.124zm19.692 51.124v-51.124h10.999v41.702h20.384v9.422h-31.383zm24.1-51.124h11.658l12.319 37.832 12.612-37.832h11.365l-17.378 51.124h-13.125l-17.451-51.124zm52.375 0h34.463v9.422h-23.464v11.466h19.065v8.983h-19.065v11.831h24.271v9.422h-35.27v-51.124zm62.788 0c3.715 0 6.99.706 9.825 2.118 2.884 1.363 5.109 3.335 6.673 5.916 1.564 2.58 2.346 5.575 2.346 8.983 0 3.262-.782 6.159-2.346 8.691-1.564 2.483-3.715 4.382-6.453 5.697L263 175.562h-12.172l-8.579-17.163h-9.312v17.163h-10.999v-51.124h20.898zm-9.899 24.832h9.019c2.591 0 4.644-.706 6.159-2.118 1.564-1.412 2.346-3.311 2.346-5.697 0-2.434-.782-4.358-2.346-5.77-1.515-1.412-3.568-2.118-6.159-2.118h-9.019v15.703z" fill="#fff"/>
</svg>
